packages/icons/src/components/Icon/assets/small-outline/privacy.svg

<svg width="16" height="16" viewBox="0 0 16 16" fill="none" xmlns="http://www.w3.org/2000/svg">
<path fill-rule="evenodd" clip-rule="evenodd" d="M7.59265 1.15979C7.81762 0.946736 8.16991 0.946736 8.39488 1.15979C9.77003 2.46213 11.6254 3.26003 13.6684 3.26003C13.7009 3.26003 13.7333 3.25983 13.7657 3.25943C14.0203 3.25627 14.2476 3.41863 14.3271 3.66052C14.6131 4.5303 14.7676 5.45907 14.7676 6.42276C14.7676 8.85714 13.7834 11.0612 12.1915 12.6592C12.1854 12.6656 12.1791 12.6719 12.1726 12.6781C11.0742 13.7741 9.68889 14.5827 8.13916 14.9816C8.04379 15.0061 7.94374 15.0061 7.84836 14.9816C6.29866 14.5827 4.91337 13.7742 3.81499 12.6782C3.80853 12.672 3.80224 12.6657 3.79613 12.6593C2.20414 11.0612 1.21997 8.85718 1.21997 6.42276C1.21997 5.45907 1.37444 4.5303 1.6604 3.66052C1.73993 3.41863 1.96718 3.25627 2.2218 3.25943C2.25421 3.25983 2.28667 3.26003 2.31918 3.26003C4.36214 3.26003 6.21749 2.46213 7.59265 1.15979ZM5.02273 12.2103C5.87003 12.948 6.88088 13.5028 7.99376 13.8128C9.10667 13.5027 10.1176 12.948 10.9649 12.2102C10.6431 11.8754 10.3006 11.6374 9.92299 11.4711C9.40378 11.2424 8.78205 11.1333 7.99383 11.1333C7.20561 11.1333 6.58386 11.2424 6.06464 11.4711C5.68703 11.6375 5.34453 11.8755 5.02273 12.2103ZM11.7845 11.3795C11.3728 10.9564 10.9145 10.633 10.3933 10.4034C9.6804 10.0894 8.88555 9.96663 7.99383 9.96663C7.10209 9.96663 6.30722 10.0894 5.59433 10.4035C5.07313 10.6331 4.6148 10.9565 4.20311 11.3796C3.06997 10.0425 2.38664 8.31224 2.38664 6.42276C2.38664 5.72942 2.47848 5.05833 2.65041 4.4206C4.68119 4.34572 6.53767 3.58513 7.99376 2.36437C9.44986 3.58513 11.3063 4.34572 13.3371 4.4206C13.509 5.05833 13.6009 5.72942 13.6009 6.42276C13.6009 8.31221 12.9176 10.0425 11.7845 11.3795ZM7.99383 4.94284C7.17636 4.94284 6.51367 5.60552 6.51367 6.42299C6.51367 7.24045 7.17636 7.90314 7.99383 7.90314C8.81129 7.90314 9.47398 7.24045 9.47398 6.42299C9.47398 5.60552 8.81129 4.94284 7.99383 4.94284ZM5.34701 6.42299C5.34701 4.96119 6.53203 3.77617 7.99383 3.77617C9.45562 3.77617 10.6406 4.96119 10.6406 6.42299C10.6406 7.88479 9.45562 9.06981 7.99383 9.06981C6.53203 9.06981 5.34701 7.88479 5.34701 6.42299Z" fill="black"/>
</svg>

<svg xmlns="http://www.w3.org/2000/svg" width="16" height="16" fill="none" viewBox="0 0 16 16">
    <path d="M7.593 1.16a.583.583 0 0 1 .802 0 7.64 7.64 0 0 0 5.37 2.1.58.58 0 0 1 .562.4c.286.87.44 1.8.44 2.763a8.8 8.8 0 0 1-2.594 6.255 8.83 8.83 0 0 1-4.034 2.304.6.6 0 0 1-.29 0 8.83 8.83 0 0 1-4.053-2.323A8.8 8.8 0 0 1 1.22 6.423c0-.964.154-1.893.44-2.762a.58.58 0 0 1 .562-.402l.097.001a7.64 7.64 0 0 0 5.274-2.1m-2.57 11.05a7.65 7.65 0 0 0 2.97 1.603 7.65 7.65 0 0 0 2.972-1.603 3.2 3.2 0 0 0-1.042-.739c-.52-.229-1.141-.338-1.93-.338-.787 0-1.41.11-1.928.338-.378.166-.72.405-1.042.74m6.762-.83a4.4 4.4 0 0 0-1.392-.977c-.713-.314-1.507-.436-2.4-.436-.89 0-1.686.122-2.399.436-.52.23-.98.553-1.39.977a7.64 7.64 0 0 1-1.817-4.957c0-.694.091-1.365.263-2.002a8.8 8.8 0 0 0 5.344-2.057 8.8 8.8 0 0 0 5.343 2.057 7.7 7.7 0 0 1 .264 2.002 7.64 7.64 0 0 1-1.817 4.957M7.993 4.943a1.48 1.48 0 1 0 0 2.96 1.48 1.48 0 0 0 0-2.96m-2.647 1.48a2.647 2.647 0 1 1 5.294 0 2.647 2.647 0 0 1-5.294 0" clip-rule="evenodd"/>
</svg>
